X: 20702
T: Johnny An Gabha
R: polka
M: 2/4
K: Gmajor
|:d/B/|G>A B/c/d|ed Bd|ed ef|ed B/c/d/B/|
G2 BG/B/|ed Bd|e>d ef|ag g:|
|:B/d/|g2 f2|e>d Bd|ed ef|ed B/c/d|
g2 GB/d/|e/f/e/d/ Bd|e/f/e/d/ e>f|ag g:|

